X:944
T:When William At Eve.
B:O'Neill's 944
N:"collected by J. O'Neill."
Z:Transcribed by Tom Keays (htkeays@mailbox.syr.edu)
Z:abc 1.6
M:6/8
R:Jig
L:1/8
K:C
G/F/|EGc cBc|Bdf fed|ecG AdB|dcBA G2 G/F/|
EGc cBc|Bdf fed|agec AdB|c3 c2 :|
||c|gfg gag|gfe f2 e|def afd|cdc B2 G|
ABc fdc|Bcd efg|fdB GAB|c3 c2 :|
